X: 589
T: Nao wugeng
%%abc-version 2.0
%%abcx-abcm2ps-target-version 5.9.1 (29 Sep 2008)
%%abc-creator hum2abc beta
%%abcx-conversion-date 2013/10/02 07:52:30
%%abc-edited-by Helmut Schaffrath
%%humdrum-veritas 450841461
%%humdrum-veritas-data 4064708214
%%continueall 1
%%barnumbers 0
L: 1/8
M: 2/4
K: A
BB2e [I:setbarnb 1]| 
c BA2 | 
A B A F | 
E3F | 
A A A A/ B/ | 
c e c B | 
A B A F | 
E4 | 
e2c2 | 
Be2B | 
c2E F | 
A4 | 
cB2A | 
E F A A | 
F E C B, | 
A,4 | 
A> F E F | 
A4 | 
cB2A | 
E F A A | 
F E C B, | 
A,4 |]  



